X:0004
T:I'll Touzle your Kurchy.
M:6/8
L:1/8
Q:3/8=120
I: :: ::
%% D  E  ^F  G  A  B  c  d  e  ^f  g
Z:Jack Campin * www.campin.me.uk * 2009
K:E Minor
B   |E>GE GEG|B>AB e2f|g>fe dgB|A>GA BG
E   |E>GE GEG|B>AB e2f|g>fe dcB|AGF  E2:|
B   |E>GE B2B|GEG  B2B|E>GE A2G|FDF  A2
G/F/|E>GE B2B|GEG  e2f|gfe  dcB|AGF  E2:|
<end>
<start>
